!!!OTL: Feria Tertia
**kern
*staff1
=--
*clefC1
*k[]
0r
=-
0r
=-
1cc
2cc
2dd
=-
2ee
2dd
2cc
2b
=-
2a
2g
1a
=-
1b
1cc
=-
1cc
1cc
=-
1b
1cc
=-
1dd
1cc
=-
!!linebreak:original
1cc
2cc
2b
=-
!LO:TX:Y=-36:t=P
2a
2g
2cc
2b
=-
!LO:TX:Y=-37:t=P
1a
1g
=-
1cc
1cc
=-
1b
1cc
=-
1a
1g
=-
0a
=-
0g
=-=
*-
!!title: @{OTL}, @{GTL}, ed. @{ENC}
!!!pag:
!!!GTL: Hymnbook C
!!!EFL: 
!!!YEM: Creative Commons CC/BY/NC/SA 4.0
!!!ENC: Marcin Konik
!!!END: 2015-0m-dd
!!!EED: Marcin Konik
!!!EEV: 
!!!ONB: Encoded in vim by Marcin Konik
!!!CharacterEncoding: utf-8
!!!RDF**kern: l=long note in original notation
!!!RDF**kern: i=editorial accidental
!!muse2ps: z14jc180F
!!!COM: Anonim
!!!CDT: [?]
!!!TXO: Polish
!!!ODT: 
!!!GTL: Hymnbook C
!!!ARL: Opactwo św. Wojciecha, Staniątki 
!!!voices:	1
